X:1
T:Title
%%score { ( 1 3 ) | 2 }
L:1/8
Q:1/4=100
M:4/4
K:F
V:1 treble nm="Grand Piano"
V:3 treble 
V:2 treble 
V:1
 c3 B A2 A2 | A2 G2 F2 C2 | z2 F2 z4 | [CEG]6 z2 | [CEc]3 [CGB] [CFA]2 [CFA]2 | %5
w: W.~H.~Doane * * *|||||
 [CAc]3 [CGB] [CFA]2 [CFA]2 | D2 F2 A2 [F=B]2 | [Ec]6 z2 | c3 c A2 [Ac]2 | d3 e f2 [Fd]2 | %10
w: |||||
 [Fc]3 [Fc] [CGB]2 [CFA]2 | [E-G]4 E4 | c3 c A2 c2 | f3 f e2 [Fd]2 | [Ed]2 [Ec][Ec] [EB]2 [EG]2 | %15
w: |||||
 F6 z2 |] %16
w: |
V:2
 [F,A,F]3 [F,DF] [F,CF]2 [A,CF]2 | [CF]2[K:bass] [C,B,C]2 [F,A,C]2 [F,A,]2 | %2
 [F,A,C]2 [B,D]A, G,2 F,2 | C,6 z2 | C,3 E, F,2 F,2 | F,3 E, F,2 F,2 | D,2 F,2 A,2 [D,G,]2 | %7
 [C,G,]6 z2 | [F,A,F]3 [F,A,] [F,CF]2 [F,C]2 | [B,F]3 [B,CF][K:bass] [B,D]2 [B,,B,]2 | %10
 [F,A,]3 [F,A,] E,2 F,2 | C,2 C,2 [C,C]4 | [F,A,F]3 [F,A,F] [F,CF]2 [A,CF]2 | %13
 [B,DF]3 [B,DF] [B,CF]2[K:bass] [B,,B,]2 | [C,B,]2 [C,B,][C,B,] [C,G,]2 [C,B,]2 | [F,A,]6 z2 |] %16
V:3
 x8 | x8 | F2 z C [CEG]2 [CFA]2 | x8 | x8 | x8 | x8 | x8 | x8 | x8 | x8 | C2 C2 c4 | x8 | x8 | x8 | %15
 x8 |] %16

